X:652
T:The New Exchange.
C:John Malchair's Third Collection of Tunes
F:https://www.vwml.org/record/Malchair/3619/p65
F:www.vwml.org/topics/historic-dance-and-tune-books/Malchair
Z:Eric Conrad Feb 2020
N:NB1 repeats added.
M:6/4
L:1/8
W:from Ed.1665.
K:Gmin
|: D2 | G3ABc B2A4 | G6- G4G2 | A3Bc2 c2B4 | A6- A4A2 |
A3Bc2 d4G2 | G2A2G2 ^F4D2 | G3ABc B2A4 | G6- G4 :|

